X:105
T:Sir Galahad's Scart
M:C|
L:1/8
C:© Paul Gitlitz 1988
R:Reel
B:Giblitz Fancy, 169 Brand New Old Time Fiddle Tunes Vol. 3, Canadian Fiddle Tunes Vol 1
N:A cat with rapier claw.
K:Dm
(^c2|"Dm"d)AFA DAF(^c|d)AFA"A7"E2 (^c2|"Dm"d)AFA DAFe|1"A7"a2(3gfe "Dm"d2:|2"A7"a2(3gfe "Dm"d4|!
|:"Gm"G3A B3A |B3c BA G2 |G3A BAGB|"Dm"A8|!
"Gm"G^FGA BAB^c|d^cde =fed2|({ga}"E7"g2)e2 ({^ga}^g2)e2"A"|a8:|]
